src/actions/24/object-group.svg

<svg xmlns="http://www.w3.org/2000/svg" viewBox="0 0 24 24">
    <path d="M4 4v16h16V4H4zm1 1h14v14H5V5zm3.5 1A2.5 2.5 0 0 0 6 8.5 2.5 2.5 0 0 0 8.5 11 2.5 2.5 0 0 0 11 8.5 2.5 2.5 0 0 0 8.5 6zM13 6v5h5V6h-5zm-6 7v5h3v-5H7zm8.5 0L13 18h5l-2.5-5z" style="fill:currentColor;fill-opacity:1;stroke:none;color:#050505;opacity:.7"/>
</svg>

<svg xmlns="http://www.w3.org/2000/svg" viewBox="0 0 24 24">
  <defs id="defs3051">
    <style type="text/css" id="current-color-scheme">
      .ColorScheme-Text {
        color:#363636;
      }
      </style>
  </defs>
 <path style="fill:currentColor;fill-opacity:1;stroke:none" 
     d="M 4 4 L 4 20 L 20 20 L 20 4 L 4 4 z M 5 5 L 19 5 L 19 8 L 19 19 L 5 19 L 5 8 L 5 5 z M 8.5 6 A 2.5 2.5 0 0 0 6 8.5 A 2.5 2.5 0 0 0 8.5 11 A 2.5 2.5 0 0 0 11 8.5 A 2.5 2.5 0 0 0 8.5 6 z M 13 6 L 13 11 L 18 11 L 18 6 L 13 6 z M 7 13 L 7 18 L 10 18 L 10 13 L 7 13 z M 15.5 13 L 13 18 L 18 18 L 15.5 13 z "
     class="ColorScheme-Text"
     />
</svg>
